svg/600/outlined/wb_incandescent.svg

<svg xmlns="http://www.w3.org/2000/svg" width="48" height="48" viewBox="0 -960 960 960"><path d="M440.391-53.999V-198h79.218v144.001h-79.218ZM53.999-440.39v-79.218H198v79.218H53.999Zm708.001 0v-79.218h144.001v79.218H762Zm-9.999 288.958-100.653-101.22 56.565-56.566 100.654 101.219-56.566 56.566Zm-544.002 0-56.566-56.566 101.219-101.219 56.566 56.566-101.219 101.219ZM480-291.782q-78.391 0-133.305-54.913-54.913-54.914-54.913-133.432 0-49.311 20.435-89.505 20.435-40.194 59.565-65.759v-210.827h216.436v210.681q38.565 25.946 59.282 66.094 20.718 40.148 20.718 89.407 0 78.427-54.913 133.341Q558.391-291.782 480-291.782Zm-42-367.436q10.5-3.054 21-4.477 10.5-1.424 21-1.424t21 1.424q10.5 1.423 21 4.477V-780h-84v120.782Zm41.951 288.217q45.397 0 77.222-31.777 31.826-31.777 31.826-77.173 0-45.397-31.777-77.222-31.777-31.826-77.173-31.826-45.397 0-77.222 31.777-31.826 31.777-31.826 77.173 0 45.397 31.777 77.222 31.777 31.826 77.173 31.826ZM480-480Z"/></svg>

<svg xmlns="http://www.w3.org/2000/svg" width="48" height="48" viewBox="0 -960 960 960"><path d="M440.39-54v-144h79.22v144h-79.22ZM54-440.39v-79.22h144v79.22H54Zm708 0v-79.22h144v79.22H762Zm-10 288.96L651.35-252.65l56.56-56.57L808.57-208 752-151.43Zm-544 0L151.43-208l101.22-101.22 56.57 56.57L208-151.43Zm272-140.35q-78.39 0-133.3-54.92-54.92-54.91-54.92-133.43 0-49.31 20.44-89.5 20.43-40.2 59.56-65.76v-210.83h216.44v210.68q38.56 25.95 59.28 66.1 20.72 40.15 20.72 89.4 0 78.43-54.92 133.34-54.91 54.92-133.3 54.92Zm-42-367.44q10.5-3.05 21-4.48 10.5-1.42 21-1.42t21 1.42q10.5 1.43 21 4.48V-780h-84v120.78ZM479.95-371q45.4 0 77.22-31.78Q589-434.56 589-479.95q0-45.4-31.78-77.22Q525.44-589 480.05-589q-45.4 0-77.22 31.78Q371-525.44 371-480.05q0 45.4 31.78 77.22Q434.56-371 479.95-371Zm.05-109Z"/></svg>
